icons/svg/fridge-filled.svg

﻿<?xml version="1.0" encoding="utf-8"?>
<!DOCTYPE svg PUBLIC "-//W3C//DTD SVG 1.1//EN" "http://www.w3.org/Graphics/SVG/1.1/DTD/svg11.dtd">
<svg xmlns="http://www.w3.org/2000/svg" xmlns:xlink="http://www.w3.org/1999/xlink" version="1.1" baseProfile="full" width="24" height="24" viewBox="0 0 24.00 24.00" enable-background="new 0 0 24.00 24.00" xml:space="preserve">
	<path fill="#000000" fill-opacity="1" stroke-width="0.2" stroke-linejoin="miter" d="M 7,2.00001L 17,2C 18.1046,2 19,2.8954 19,4L 19,9L 5,9L 5,4.00001C 5,2.8954 5.89543,2.00001 7,2.00001 Z M 19,19C 19,20.1046 18.1046,21 17,21L 17,22L 15,22L 15,21L 9,21L 9,22L 7,22L 7,21C 5.89543,21 5,20.1046 5,19L 5,10L 19,10L 19,19 Z M 7.99999,5.00003L 7.99999,7.00002L 9.99999,7.00002L 9.99999,5.00003L 7.99999,5.00003 Z M 8,12L 8,15L 10,15L 10,12L 8,12 Z "/>
</svg>

<svg xmlns="http://www.w3.org/2000/svg" version="1.1" baseProfile="full" width="24" height="24" viewBox="0 0 24.00 24.00" xml:space="preserve"><path fill="#000" fill-opacity="1" stroke-width=".2" stroke-linejoin="miter" d="M7 2h10c1.105 0 2 .895 2 2v5H5V4c0-1.105.895-2 2-2zm12 17c0 1.105-.895 2-2 2v1h-2v-1H9v1H7v-1c-1.105 0-2-.895-2-2v-9h14v9zM8 5v2h2V5H8zm0 7v3h2v-3H8z"/></svg>
